X: 0
T: Kuppari
M: 2/4
L: 1/16
Q: 1/4=116
K:
% - - - - - - - - - - - - - - - - - - - - - - - - -
P: Kuppari   [D]
K: D
[| "D"D2DD F2D2 | "A7"C2A,2 A,4 | A2A2 BBAG | "D"F2D2 D4 |]
w: Ku-pa-ri is-tui uu-nil-la, pii-pun-ny-s\"a o-li huu-lil-la.
|: "D"F2AA G2F2 | "Em"E2B,2 B,4 | "A7"A,A,A,A, B,2CA, | "D"D2D2 D4 :|
w: Ky-se-li ky-l\"an | \"am-mil-t\"a, on-ko siel-l\"a sau-nas-sa l\"am-min-t\"a.
% - - - - - - - - - - - - - - - - - - - - - - - - -
P: Kuppari   [G]
M: 2/4
L: 1/16
K: G
%Q: 1/4=116
[| "G"G2GG B2G2 | "D7"F2D2 D4 | d2d2 eedc | "G"B2G2 G4 \
|: "G"B2dd c2B2 | "Am"A2E2 E4 | "D7"DDDD E2FD | "G"G2G2 G4 :|

%%sep 1 1 500

